public/img/casting-icon-6.svg

<svg width="49" height="49" viewBox="0 0 49 49" fill="none" xmlns="http://www.w3.org/2000/svg">
<g clip-path="url(#clip0)">
<path d="M48.3454 42.1667L48.3186 42.1438L48.3492 42.1131L47.664 41.5351L42.898 37.1098C42.898 37.1098 42.8176 37.1978 42.6759 37.328L42.5497 37.462C41.4625 38.4802 37.9788 41.4164 33.8904 41.4738C33.8024 41.4738 33.7143 41.4738 33.6263 41.4738C31.4749 41.2403 29.3771 40.0881 27.2487 37.9481C23.7153 34.3956 19.7915 32.4701 15.5614 32.2059C15.4427 32.2059 15.3278 32.2059 15.2091 32.2059C14.5728 32.1495 13.9335 32.1329 13.2951 32.1562C6.9289 32.4165 2.19353 36.6849 0.585714 38.3309C0.252667 38.6487 0.0459412 38.8707 0.00383186 38.9128L0.026823 38.9358L0 38.9702L0.685249 39.5445L5.44741 43.9698L5.67331 43.7516L5.79967 43.6138C6.88303 42.5955 10.3704 39.6593 14.4588 39.6057C14.5469 39.6057 14.6349 39.6057 14.723 39.6057C16.8744 39.8392 18.9722 40.9953 21.0968 43.1314C24.634 46.6839 28.5579 48.6095 32.7879 48.8736C32.9066 48.8736 33.0214 48.8736 33.1401 48.8736C33.7763 48.9332 34.4157 48.9511 35.0542 48.9272C41.4203 48.6631 46.1557 44.3947 47.7597 42.7486C48.0927 42.4309 48.3033 42.2127 48.3454 42.1667Z" fill="url(#paint0_linear)"/>
<path d="M27.9453 13.7812H23.7344V23.7343H27.9453V13.7812Z" fill="#5A2E91"/>
<path d="M35.2188 13.7812H31.0078V23.7343H35.2188V13.7812Z" fill="#5A2E91"/>
<path d="M42.4922 13.7812H38.2812V23.7344H42.4922V13.7812Z" fill="#5A2E91"/>
<path d="M44.7891 25.2656H21.0547V27.1796H44.7891V25.2656Z" fill="#5A2E91"/>
<path d="M45.1719 11.1016H21.0547V12.25H45.1719V11.1016Z" fill="#5A2E91"/>
<path d="M47.4687 27.9453H18.7578V29.8594H47.4687V27.9453Z" fill="#5A2E91"/>
<path d="M21.0547 10.3359H45.1719L33.11 3.44525L21.0547 10.3359Z" fill="#5A2E91"/>
<path d="M32.9252 2.28754L47.2407 10.7187L48.2344 9.01714L32.9252 -6.10352e-05L17.6094 9.01714L18.603 10.7187L32.9252 2.28754Z" fill="#5A2E91"/>
</g>
<defs>
<linearGradient id="paint0_linear" x1="24.1746" y1="32.146" x2="24.1763" y2="47.2211" gradientUnits="userSpaceOnUse">
<stop stop-color="#2A5BA6"/>
<stop offset="1" stop-color="#E2127E"/>
</linearGradient>
<clipPath id="clip0">
<rect width="49" height="49" fill="white"/>
</clipPath>
</defs>
</svg>

<svg width="49" height="49" fill="none" xmlns="http://www.w3.org/2000/svg"><g clip-path="url(#clip0)"><path d="M48.345 42.167l-.026-.023.03-.03-.685-.579-4.766-4.425s-.08.088-.222.218l-.126.134c-1.087 1.018-4.571 3.954-8.66 4.012h-.264c-2.151-.234-4.249-1.386-6.377-3.526-3.534-3.552-7.457-5.478-11.688-5.742h-.352a15.342 15.342 0 00-1.914-.05c-6.366.26-11.101 4.529-12.71 6.175-.332.318-.54.54-.581.582l.023.023L0 38.97l.685.575 4.762 4.425.226-.218.127-.138c1.083-1.018 4.57-3.955 8.659-4.008h.264c2.151.233 4.25 1.39 6.374 3.525 3.537 3.553 7.46 5.478 11.69 5.743h.353c.636.06 1.276.077 1.914.053 6.366-.264 11.102-4.532 12.706-6.178.333-.318.543-.536.585-.582z" fill="url(#paint0_linear)"/><path d="M27.945 13.781h-4.21v9.953h4.21v-9.953zm7.274 0h-4.211v9.953h4.21v-9.953zm7.273 0h-4.21v9.953h4.21v-9.953zm2.298 11.485H21.054v1.914h23.734v-1.914zm.382-14.164H21.055v1.148h24.117v-1.148zm2.297 16.843H18.758v1.914h28.71v-1.914zM21.055 10.336h24.117L33.11 3.446l-12.055 6.89z" fill="#5A2E91"/><path d="M32.925 2.288l14.316 8.43.993-1.7L32.925 0 17.61 9.017l.994 1.702 14.322-8.431z" fill="#5A2E91"/></g><defs><linearGradient id="paint0_linear" x1="24.175" y1="32.146" x2="24.176" y2="47.221" gradientUnits="userSpaceOnUse"><stop stop-color="#2A5BA6"/><stop offset="1" stop-color="#E2127E"/></linearGradient><clipPath id="clip0"><path fill="#fff" d="M0 0h49v49H0z"/></clipPath></defs></svg>
